X: 2823
T: Barabel Phadruig
R: slip jig
M: 9/8
K: Adorian
|:f2 B BcB c2 e|f2 B BcB cBA|f2 B BcB c2 e|fef a2 f ecA:|
|:B2 b b^ab =a2 e|f2 b b^ab =afe|f2 b b^ab =a2 e|fga f2 e cBA:|
|:e2 A ABA B2 d|e2 A ABA BAG|e2 A ABA B2 d|ede g2 e dBG:|
|:A2 a a^ga =g2 d|e2 a a^ga =ged|e2 a a^ga =g2 d|efg e2 d BAG:|

